X:1
T:Loving Each Other
T:Loving Each Other
T:Daniel Edward Lorenz
T:Daniel Edward Lorenz, 1885
T:Public Domain Courtesy of the Cyber Hymnal™
C:Daniel Edward Lorenz
Z:Public Domain
Z:Courtesy of the Cyber Hymnal™
%%score ( 1 2 ) 3
L:1/8
Q:1/4=95
M:6/8
K:D
V:1 treble 
V:2 treble 
V:3 bass 
V:1
 [DF][DF][DF] [DF][CE][DF] | [FA][GB][FA] [DF]2 z | [CE][CE][CE] [CE][B,D][CE] | [DF]3 [FA]2 z | %4
w: 1.~This is the mot- to we|all would o- bey,|We will all love one an-|oth- er;|
w: 2.~Thus will we la- bor, and|thus will we pray,|Try- ing to help one an-|oth- er;|
w: 3.~Let us, like Je- sus, be|thought- ful and kind,|Striv- ing to please one an-|oth- er;|
 [DF][DF][DF] [DF][CE][DF] | [FA][GB][FA] [DF]2 z | [CE][CE][CE] [CA][CG][CE] | D3 D2 z || %8
w: Hap- py we sing and are|glad all the day,|When we can serve one an-|oth- er.|
w: Driv- ing the sor- rows of|oth- ers a- way,|Bring- ing sweet peace to each|oth- er.|
w: Here, as in Heav’n, we will|be of one mind,|Ev- ery one lov- ing the|oth- er.|
"^Refrain" [Fd]4 [Ac][GB] | [FA]3 [DF]2 [FA] | [EG][DF][CE] [CE][B,D][CE] | [DF]3 [FA]2 z | %12
w: ||||
w: Lov- ing each|o- ther, How|plea- sant to cher- ish a|bro- ther;|
w: ||||
 [Fd]4 [Ac][GB] | [FA]3 [DF]2 D | [CE][DF][EG] [CA][EG][CE] | D3- D2 z |] %16
w: ||||
w: Serv- ing each|o- ther, The|Sav- ior looks on us with|joy. *|
w: ||||
V:2
 x6 | x6 | x6 | x6 | x6 | x6 | x6 | D3 D2 x || x6 | x6 | x6 | x6 | x6 | x5 D | x6 | D3- D2 x |] %16
V:3
 [D,A,][D,A,][D,A,] [D,A,][D,A,][D,A,] | [D,D][D,D][D,D] [D,A,]2 z | %2
w: ~ ~ ~ ~ ~ ~|~ ~ ~ ~|
 [A,,A,][A,,A,][A,,A,] [A,,A,][A,,A,][A,,A,] | [D,A,]3 [D,D]2 z | %4
w: ~ ~ ~ ~ ~ ~|~ ~|
 [D,A,][D,A,][D,A,] [D,A,][D,A,][D,A,] | [D,D][D,D][D,D] [D,A,]2 z | %6
w: ~ ~ ~ ~ ~ ~|~ ~ ~ ~|
 [A,,A,][A,,A,][A,,A,] [A,,E,][A,,E,][A,,G,] | [D,F,]3 [D,F,]2 z || %8
w: ~ ~ ~ ~ ~ ~|~ ~|
 [D,A,][D,A,][D,A,] [D,A,][D,B,][D,C] | [D,D]3 [D,A,]2 [D,A,] | %10
w: Lov- ing and serv- ing each|oth- er, ~|
 [A,,A,][A,,A,][A,,A,] [A,,A,][A,,A,][A,,A,] | [D,A,]3 [D,D]2 z | %12
w: ~ ~ ~ ~ ~ ~|~ ~|
 [D,A,][D,A,][D,A,] [D,A,][D,B,][D,C] | [D,D]3 [D,A,]2 [D,F,] | %14
w: Serv- ing and lov- ing each|oth- er, *|
 [A,,A,][A,,A,][A,,A,] [A,,A,][A,,A,][A,,G,] | [D,F,]3- [D,F,]2 z |] %16
w: ||

